X: 52
T: MARAICHINE de GRANDLIEU
M: 4/4
L: 1/8
Q:1/4=120
K:G 
|G3/2 z/2 FE FGA3/2 z/2 |GA/2B/2AG EFED|G3/2 z/2 FE FGA3/2 z/2 |GA/2B/2A
G EFG3/2 z/2 |
|:GA/2B/2AG EFED|GA/2B/2AG EFG3/2 z/2:|
